!!!OTL: Der heimkehrende Braeutigam Sankt Michel, der will bauen
!!!ARE: Europa, Mitteleuropa, Deutschland (BRD), Rheinland
!!!YOR: 5, S. 144
!!    1915 aufgezeichnet
!!!SCT: Q1102I
!!!YEM: Copyright 1995, estate of Helmut Schaffrath.
**kern
*ICvox
*Ivox
*M6/8
*k[f#]
*G:
{8dd
=1
8dd
8b
8b
8b
8cc
8dd
=2
4dd
8ee
4cc}
{8cc
=3
4dd
8dd
4dd
8cc
=4
4.b
4r}
{8dd
=5
8dd
8b
8b
8b
8cc
8dd
=6
4dd
8ee
4cc}
{8cc
=7
4dd
8dd
4dd
8cc
=8
4.b
4r}
==
!!!AGN: geistlich
!! Melodievergleich zu Q0102F, anderes Lied.
!!!ONB: ESAC (Essen Associative Code) Database: BALLADE
!!!AMT: compound duple
!!!AIN: vox
!!!EED: Helmut Schaffrath
!!!EEV: 1.0
*-
